!!!!SEGMENT: pl-wumfc--r282--003-006_paderewski-ignacy-jan--exercises-3-exercise-6.krn
!!!cenid: 18xx:3201
!!!COM: Paderewski, Ignacy Jan
!!!COM-rismID: pe30029943
!!!CDT: 1860/11/18-1941/06/29
!!!CNT: Polish
!!!GTL: [Exercises 3]
!!!OTL: [Exercise] 6
!!!OMV: 006
!!!PDT:
!!!AGN:
!!!SMS-siglum: PL-Wumfc
!!!SMS-shelfmark: R282
!!!SMS-shelfwork: 003-006 G
!!!SMS-variant:
!!!SMS-altvar:
!!!NIFC-rismSourceID: 1001158933
!!!NIFC-islandoraID: pl-wumfc:419
!!!URL-pdf-islandora: https://repozytorium.nifc.pl/islandora/object/pl-wumfc%3A419/datastream/PDF/view
!!!URL-scan: https://polish.musicsources.pl/pl/lokalizacje/galeria/rekopisy/4702 @EN{Scan on Polish Music Sources Website} @PL{Skany w portalu Dziedzictwo Muzyki Polskiej w otwartym dostępie}
!!!ONB-nifc: UWAGA: druga grupa ćwiczeń od skanu 0011, prawa strona, 3 system. Nr 003 i 004 nienumerowane – skan 0012, lewa strona. Nr 010 nienumerowany – skan 0014, 3 pierwsze systemy
!!!AIN: 2 piano
!!!key: F
**kern	**kern
*part2	*part1
*staff2	*staff1
*I"Fortepian	*I"Fortepian
*Ipiano	*Ipiano
*ICklav	*ICklav
*IGsolo	*IGsolo
*clefF4	*clefG2
*k[b-]	*k[b-]
*F:	*F:
*M6/4	*M6/4
*^	*^
!	!LO:TX:a:t=c.f.	!LO:TX:t=P:problem=metrum 6/8 wpisane (błędnie) w exr. 5, podobnie znak przykluczowy	!
2.c/	2.F\	4cc/	2.a\
.	.	4aa/	.
.	.	4gg/	.
=1	=1	=1	=1
2.f/	2.A\	4ff/	2.cc\
.	.	4gg/	.
.	.	4ff/	.
2.g/@	2.c\	4ee/	2.g\
.	.	4dd/	.
.	.	4ee/	.
=2	=2	=2	=2
2.c/	2.A\	4ff/	2.cc\@
.	.	4ee/	.
.	.	4ff/	.
2.d/	2.G\	4gg/	2.b-\
.	.	4dd/	.
.	.	4ee/	.
=3	=3	=3	=3
2.c/	2.A\	4ff/	2.a\
.	.	4gg/	.
.	.	4ff/	.
2.d/	2.Bn\	4dd/	[2.g\
.	.	4ee/	.
.	.	4dd/	.
=4	=4	=4	=4
2.e/	2.c\	2.cc;/	2.g\]
2.d/	2.d\	4ff/	2.a\
.	.	4gg/@	.
.	.	4ff/@	.
=5	=5	=5	=5
2.e/	2.c\	4ee/	2.a\
.	.	4dd/	.
.	.	4ee/	.
!!LO:LB:g=original
2.c/	2.A\	4ff/	2.cc\
.	.	4ee/	.
.	.	4ff/	.
=6	=6	=6	=6
2.d/	2.G\	4gg/	2.b-\
.	.	4dd/	.
.	.	4cc/@	.
2.f/	2.F\	4dd/	2.a\
.	.	4ee 4a/	.
.	.	4ff 4b-/	.
=7	=7	=7	=7
2.c/	2.A\	4ee/	2.a\
.	.	4dd/	.
.	.	4ee/	.
2.B-/	2.G\	4gg/	2.b-\
.	.	4ff/	.
.	.	4gg/	.
=8	=8	=8	=8
2.c;/	2.F\	2.aa;/	2.a\
2.B-/	2.G\	4gg/	2.b-\
.	.	4ff/	.
.	.	4ee/	.
=9	=9	=9	=9
2.c/	2.A\	4ff/	2.a\
.	.	4cc/	.
.	.	4dd/	.
2.A/	2.A\	4ee/	2.cc\
.	.	4ff/	.
.	.	4ee/	.
=10	=10	=10	=10
2.d/	2.G\	4gg/	2.b-\
.	.	4bb-/	.
.	.	4aa/	.
2.e/	2.c\	4gg/	2.cc\
.	.	4ff/	.
.	.	4gg/	.
=11	=11	=11	=11
2.e/	2.c\	4aa/	2.a\
.	.	4gg/	.
.	.	4ff/	.
2.d/	2.Bn\	4gg/	2.dd\
.	.	4aa/	.
.	.	4gg/	.
=12	=12	=12	=12
2.g;/	2.c\	2.ee;/	2.cc\
2.c/	2.A\	4ff/	2.f\
.	.	4gg/	.
.	.	4ff/	.
!!LO:LB:g=original
=13	=13	=13	=13
2.d/	2.B-X\	4dd/	2.f\
.	.	4ee/	.
.	.	4dd/	.
2.e/	2.A\	4cc/	2.a\
.	.	4dd/	.
.	.	4ee/	.
=14	=14	=14	=14
2.B-/	2.G\	4gg/	2.b-\
.	.	4ff/	.
.	.	4gg/	.
2.c/	2.F\	4aa/	2.a\
.	.	4gg/	.
.	.	4aa/	.
=15	=15	=15	=15
2.B-/	2.G\	4bb-/	2.g\
.	.	4aa/	.
.	.	4bb-/	.
2.c/	2.E\	4gg/	2.g\
.	.	4aa/	.
.	.	4gg/	.
=16	=16	=16	=16
2.A;/	2.F\	2.ff/	2.a\
*v	*v	*	*
*	*v	*v
==	==
*-	*-
!!!system-decoration: [(s1,s2)]
!!!RDF**kern: @ = marked note, color=grey
!!!ENC: Filip Voros
!!!END: 2021-11-13
!!!ENC: Marta Lawrence
!!!END: 2021-11-15
